dist/svgs/crypto-icons/icons/piggy.svg

<?xml version="1.0" encoding="UTF-8" standalone="yes"?>
<svg xmlns="http://www.w3.org/2000/svg" xmlns:xlink="http://www.w3.org/1999/xlink" width="512px" height="512px" viewBox="0 0 384 384" version="1.1">
  <g id="surface1">
    <path style=" stroke:none;fill-rule:nonzero;fill:rgb(0%,0%,0%);fill-opacity:1;" d="M 375.03125 206.183594 L 361.703125 192.214844 C 362.148438 162.613281 353.578125 133.347656 337.039062 107.382812 C 342.261719 88.484375 352.1875 50.511719 350.640625 40.078125 C 348.558594 26.011719 333.96875 3.085938 299.058594 6.210938 C 275.101562 8.355469 253.847656 23.347656 242.867188 32.542969 C 197.34375 14.378906 155.480469 15.3125 120.910156 24.253906 C 109.222656 16.714844 88.941406 6.898438 74.171875 17.398438 C 60.6875 26.988281 56.238281 43.375 54.804688 54.605469 C 54.773438 54.621094 54.734375 54.640625 54.703125 54.667969 C 54.703125 54.667969 0 88.007812 0 170.855469 C 0 217.421875 15.964844 251.46875 39.109375 277.082031 C 39.796875 287.347656 42.183594 300.070312 49.496094 304.753906 C 55.9375 308.875 66.449219 308.921875 75.433594 307.910156 C 84.125 313.695312 93.101562 318.863281 102.117188 323.507812 C 118 331.691406 138.089844 339.613281 160.363281 344.324219 C 169.929688 357.546875 187.921875 378.050781 207.363281 377.695312 C 228.148438 377.316406 243.953125 356.40625 251.492188 340.558594 C 274.476562 332.839844 297.136719 318.980469 317.859375 296.609375 C 331.425781 304.5 354.796875 291.394531 370.507812 266.871094 C 386.46875 241.984375 388.492188 214.820312 375.03125 206.183594 Z M 210.484375 60.402344 C 210.484375 60.402344 181.554688 42.105469 153.726562 38.867188 C 125.902344 35.625 104.578125 39.691406 97.253906 39.734375 L 111.492188 34.085938 C 111.492188 34.085938 130.703125 25.4375 174.539062 31.484375 C 212.308594 36.695312 227.941406 50.238281 227.941406 50.238281 Z M 295.226562 185.226562 C 288.996094 185.480469 283.566406 175.972656 283.09375 164.003906 C 282.625 152.03125 287.292969 142.136719 293.523438 141.890625 C 299.753906 141.640625 305.1875 151.148438 305.652344 163.121094 C 306.128906 175.085938 301.457031 184.984375 295.226562 185.226562 Z M 325.832031 168.210938 C 320.550781 168.425781 315.949219 160.367188 315.546875 150.214844 C 315.152344 140.070312 319.109375 131.675781 324.390625 131.46875 C 329.675781 131.257812 334.277344 139.316406 334.671875 149.46875 C 335.078125 159.617188 331.113281 168.011719 325.832031 168.210938 Z M 350.730469 259.230469 C 349.796875 268.15625 345.441406 275 340.996094 274.539062 C 336.5625 274.078125 333.726562 266.476562 334.664062 257.546875 C 335.601562 248.621094 339.960938 241.769531 344.398438 242.246094 C 348.832031 242.703125 351.667969 250.316406 350.730469 259.230469 Z M 372.152344 238.925781 C 371.300781 247.074219 367.464844 253.335938 363.59375 252.929688 C 359.726562 252.527344 357.277344 245.601562 358.128906 237.453125 C 358.988281 229.3125 362.820312 223.042969 366.695312 223.457031 C 370.566406 223.859375 373.007812 230.789062 372.152344 238.925781 Z M 372.152344 238.925781 "/>
  </g>
</svg>

<svg xmlns="http://www.w3.org/2000/svg" viewBox="0 0 384 384"><path d="M375.031 206.184l-13.328-13.97c.445-29.6-8.125-58.866-24.664-84.831 5.223-18.899 15.149-56.871 13.602-67.305-2.082-14.066-16.672-36.992-51.582-33.867-23.957 2.144-45.211 17.137-56.192 26.332-45.523-18.164-87.387-17.23-121.957-8.29-11.687-7.538-31.969-17.355-46.738-6.855-13.484 9.59-17.934 25.977-19.367 37.207a.513.513 0 00-.102.063S0 88.008 0 170.855c0 46.567 15.965 80.614 39.11 106.227.687 10.266 3.074 22.988 10.386 27.672 6.441 4.121 16.953 4.168 25.938 3.156 8.691 5.785 17.668 10.953 26.683 15.598 15.883 8.183 35.973 16.105 58.246 20.816 9.567 13.223 27.559 33.727 47 33.371 20.785-.379 36.59-21.289 44.13-37.136 22.984-7.72 45.644-21.579 66.366-43.95 13.567 7.891 36.938-5.214 52.649-29.738 15.96-24.887 17.984-52.05 4.523-60.687zM210.484 60.402s-28.93-18.297-56.757-21.535c-27.825-3.242-49.149.824-56.473.867l14.238-5.648s19.211-8.648 63.047-2.602c37.77 5.211 53.402 18.754 53.402 18.754zm84.743 124.825c-6.23.253-11.66-9.254-12.133-21.223-.469-11.973 4.199-21.867 10.43-22.113 6.23-.25 11.663 9.257 12.128 21.23.477 11.965-4.195 21.863-10.425 22.106zm30.605-17.016c-5.281.215-9.883-7.844-10.285-17.996-.395-10.145 3.562-18.54 8.844-18.746 5.285-.211 9.886 7.847 10.28 18 .407 10.148-3.558 18.543-8.839 18.742zm24.898 91.02c-.933 8.925-5.289 15.769-9.734 15.308-4.433-.46-7.27-8.062-6.332-16.992.938-8.926 5.297-15.777 9.734-15.3 4.434.456 7.27 8.07 6.332 16.983zm21.422-20.305c-.851 8.148-4.687 14.41-8.558 14.004-3.867-.403-6.317-7.328-5.465-15.477.86-8.14 4.691-14.41 8.566-13.996 3.871.402 6.313 7.332 5.457 15.469zm0 0"/></svg>
